src/assets/icons/gauge.svg

<svg width="14" height="14" viewBox="0 0 14 14" fill="none" xmlns="http://www.w3.org/2000/svg">
<g id="gauge">
<path id="Vector" fill-rule="evenodd" clip-rule="evenodd" d="M3.51757 4.18067L4.5111 5.18547C4.72019 5.39693 4.71827 5.73786 4.5068 5.94695C4.29534 6.15605 3.95441 6.15413 3.74532 5.94266L2.70091 4.88641C1.95941 5.68824 1.55199 6.6601 1.33003 7.49349C1.21354 7.93087 1.15046 8.32162 1.11642 8.61535H2.33333C2.63072 8.61535 2.87179 8.85642 2.87179 9.15381C2.87179 9.45119 2.63072 9.69227 2.33333 9.69227H1.07692V10.5897C1.07692 10.6888 1.15728 10.7692 1.25641 10.7692H3.90517L7.69617 6.97819C7.90646 6.7679 8.24739 6.7679 8.45767 6.97819C8.66796 7.18847 8.66796 7.5294 8.45767 7.73969L5.42817 10.7692H12.7436C12.8427 10.7692 12.9231 10.6888 12.9231 10.5897V9.69227H11.6667C11.3693 9.69227 11.1282 9.45119 11.1282 9.15381C11.1282 8.85642 11.3693 8.61535 11.6667 8.61535H12.8836C12.8704 8.50164 12.8528 8.3731 12.8294 8.23272C12.7344 7.66221 12.5452 6.90977 12.1722 6.16385C11.9516 5.72261 11.6685 5.28713 11.3048 4.89256L10.2525 5.94481C10.0423 6.1551 9.70133 6.1551 9.49105 5.94481C9.28076 5.73453 9.28076 5.3936 9.49105 5.18332L10.4891 4.18524C10.4718 4.17338 10.4544 4.1616 10.4369 4.14991C9.72515 3.67542 8.78646 3.32557 7.53846 3.24725V4.48714C7.53846 4.78453 7.29738 5.0256 7 5.0256C6.70262 5.0256 6.46154 4.78453 6.46154 4.48714V3.24725C5.19126 3.32693 4.23844 3.68807 3.51757 4.18067ZM13.4615 9.15381C14 9.15381 14 9.15352 14 9.15321L14 9.15051L14 9.14485L13.9997 9.12659C13.9995 9.11138 13.999 9.09015 13.9981 9.0633C13.9963 9.00963 13.9928 8.93339 13.986 8.8378C13.9724 8.6468 13.9453 8.37746 13.8917 8.05567C13.7849 7.41464 13.5702 6.55169 13.1355 5.68223C12.6997 4.81066 12.0375 3.92271 11.0343 3.25386C10.0276 2.58276 8.70961 2.15381 7 2.15381C4.91063 2.15381 3.41175 2.79477 2.35329 3.72341C1.15904 4.77118 0.576098 6.1398 0.289381 7.21633C0.145157 7.75785 0.0730468 8.23583 0.0368582 8.57996C0.0187308 8.75234 0.00952514 8.89202 0.00484657 8.99036C0.00250605 9.03955 0.00129483 9.07848 0.000668556 9.10606C0.000355354 9.11985 0.000188204 9.13082 9.94083e-05 9.13882L1.63897e-05 9.14858L3.03831e-06 9.15177L6.41896e-07 9.15293C5.5631e-07 9.15314 0 9.15381 0.538462 9.15381H0V10.5897C0 11.2836 0.562514 11.8461 1.25641 11.8461H12.7436C13.4375 11.8461 14 11.2836 14 10.5897V9.15321L13.4615 9.15381Z" fill="black"/>
</g>
</svg>

<svg xmlns="http://www.w3.org/2000/svg" fill="none" viewBox="0 0 14 14"><path fill="#000" fill-rule="evenodd" d="m3.518 4.18.993 1.005a.538.538 0 1 1-.766.758L2.701 4.886c-.742.802-1.149 1.774-1.371 2.607-.116.438-.18.829-.214 1.122h1.217a.538.538 0 1 1 0 1.077H1.077v.898c0 .099.08.18.18.18h2.648l3.791-3.792a.538.538 0 1 1 .762.762l-3.03 3.03h7.316c.099 0 .18-.081.18-.18v-.898h-1.257a.538.538 0 1 1 0-1.077h1.217a8 8 0 0 0-.055-.382 7.4 7.4 0 0 0-.657-2.07 5.5 5.5 0 0 0-.867-1.27l-1.053 1.052a.538.538 0 1 1-.761-.762l.998-.998-.052-.035c-.712-.475-1.65-.824-2.899-.903v1.24a.538.538 0 1 1-1.076 0v-1.24c-1.27.08-2.224.441-2.944.934m9.943 4.974H14v-.027l-.002-.064a8.463 8.463 0 0 0-.106-1.008 8.5 8.5 0 0 0-.757-2.373c-.435-.871-1.098-1.76-2.1-2.428-1.007-.671-2.325-1.1-4.035-1.1-2.09 0-3.588.64-4.647 1.57C1.16 4.77.576 6.14.29 7.215A9 9 0 0 0 .005 8.99L0 9.14v.013c0 .001 0 .002.538.002H0v1.436c0 .694.563 1.256 1.256 1.256h11.488c.694 0 1.256-.562 1.256-1.256V9.153z" clip-rule="evenodd"/></svg>
